build/static/img/icons/door.svg

<svg width="20" height="32" viewBox="0 0 20 32" fill="none" xmlns="http://www.w3.org/2000/svg">
<path fill-rule="evenodd" clip-rule="evenodd" d="M5.78947 0.702231V1.42773H2.89474H0V15.4902V29.5526H1.05263H2.10526V16.4901V3.42772H3.94737H5.78947V17.7138V32L5.9704 31.963C6.06993 31.9427 9.20066 31.4065 12.9276 30.7714C16.6546 30.1364 19.7705 29.6018 19.852 29.5835L20 29.5502V15.9901V2.4301L19.852 2.39841C19.7705 2.38097 16.6398 1.84416 12.8947 1.20548C9.14967 0.566794 6.01895 0.0290474 5.9375 0.010485C5.79046 -0.0230774 5.78947 -0.0185148 5.78947 0.702231ZM8.87382 15.1375C9.26836 15.4746 9.37849 16.0863 9.12829 16.5514C8.94368 16.8946 8.70335 17.0651 8.40428 17.0651C7.9071 17.0651 7.565 16.6334 7.56684 16.0083C7.56941 15.1637 8.31947 14.664 8.87382 15.1375Z" fill="white"/>
</svg>

<svg width="20" height="32" fill="none" xmlns="http://www.w3.org/2000/svg"><path fill-rule="evenodd" clip-rule="evenodd" d="M5.79.702v.726H0v28.125h2.105V3.428H5.79V32l.181-.037c.1-.02 3.23-.556 6.958-1.192 3.727-.635 6.842-1.17 6.924-1.188L20 29.55V2.43l-.148-.032c-.082-.017-3.212-.554-6.957-1.193C9.15.567 6.019.03 5.938.01c-.148-.033-.149-.029-.149.692zm3.084 14.435c.394.338.504.95.254 1.414-.184.344-.425.514-.724.514-.497 0-.839-.432-.837-1.057.002-.844.752-1.344 1.307-.87z" fill="#fff"/></svg>
